assets/tabImg/home_selected.svg

<svg height="32" viewBox="0 0 1024 1024" width="32" xmlns="http://www.w3.org/2000/svg"><path d="m946.5 505-386.4-386.2-25.9-25.9c-12.3-12.2-32.1-12.2-44.4 0l-412.3 412.1c-12.3 12.3-18.9 28.6-18.8 46 .4 35.2 29.7 63.3 64.9 63.3h42.5v325.7h691.8v-325.7h43.4c17.1 0 33.2-6.7 45.3-18.8s18.7-28.2 18.7-45.3c0-17-6.7-33.1-18.8-45.2zm-378.5 363h-112v-204h112zm217.9-325.7v325.7h-153.9v-228c0-22.1-17.9-40-40-40h-160c-22.1 0-40 17.9-40 40v228h-153.9v-325.7h-96l370-369.7 23.1 23.1 346.8 346.6z" fill="#d3a468"/></svg>

<?xml version="1.0" standalone="no"?><!DOCTYPE svg PUBLIC "-//W3C//DTD SVG 1.1//EN" "http://www.w3.org/Graphics/SVG/1.1/DTD/svg11.dtd"><svg t="1566870819152" class="icon" viewBox="0 0 1024 1024" version="1.1" xmlns="http://www.w3.org/2000/svg" p-id="2423" data-spm-anchor-id="a313x.7781069.0.i4" xmlns:xlink="http://www.w3.org/1999/xlink" width="32" height="32"><defs><style type="text/css"></style></defs><path d="M946.5 505L560.1 118.8l-25.9-25.9c-12.3-12.2-32.1-12.2-44.4 0L77.5 505c-12.3 12.3-18.9 28.6-18.8 46 0.4 35.2 29.7 63.3 64.9 63.3h42.5V940h691.8V614.3h43.4c17.1 0 33.2-6.7 45.3-18.8 12.1-12.1 18.7-28.2 18.7-45.3 0-17-6.7-33.1-18.8-45.2zM568 868H456V664h112v204z m217.9-325.7V868H632V640c0-22.1-17.9-40-40-40H432c-22.1 0-40 17.9-40 40v228H238.1V542.3h-96l370-369.7 23.1 23.1L882 542.3h-96.1z" p-id="2424" fill="#D3A468" data-spm-anchor-id="a313x.7781069.0.i3" class="selected"></path></svg>
